archdroid-icon-theme/Archdroid-Green/apps/scalable/preferences-desktop-keyboard-shortcuts.svg

<?xml version="1.0" encoding="UTF-8" standalone="no"?>
<svg
   xmlns:dc="http://purl.org/dc/elements/1.1/"
   xmlns:cc="http://creativecommons.org/ns#"
   xmlns:rdf="http://www.w3.org/1999/02/22-rdf-syntax-ns#"
   xmlns:svg="http://www.w3.org/2000/svg"
   xmlns="http://www.w3.org/2000/svg"
   xmlns:sodipodi="http://sodipodi.sourceforge.net/DTD/sodipodi-0.dtd"
   xmlns:inkscape="http://www.inkscape.org/namespaces/inkscape"
   fill="#4CAF50"
   width="48"
   height="48"
   viewBox="0 0 48 48"
   id="svg2"
   version="1.1"
   inkscape:version="0.91 r13725"
   sodipodi:docname="preferences-desktop-keyboard-shortcuts.svg">
  <metadata
     id="metadata10">
    <rdf:RDF>
      <cc:Work
         rdf:about="">
        <dc:format>image/svg+xml</dc:format>
        <dc:type
           rdf:resource="http://purl.org/dc/dcmitype/StillImage" />
      </cc:Work>
    </rdf:RDF>
  </metadata>
  <defs
     id="defs8" />
  <sodipodi:namedview
     pagecolor="#ffffff"
     bordercolor="#666666"
     borderopacity="1"
     objecttolerance="10"
     gridtolerance="10"
     guidetolerance="10"
     inkscape:pageopacity="0"
     inkscape:pageshadow="2"
     inkscape:window-width="1366"
     inkscape:window-height="713"
     id="namedview6"
     showgrid="false"
     inkscape:snap-bbox="true"
     inkscape:bbox-nodes="true"
     inkscape:zoom="4.144188127079506"
     inkscape:cx="-27.82767864227995"
     inkscape:cy="6.041633450873746"
     inkscape:window-x="0"
     inkscape:window-y="30"
     inkscape:window-maximized="1"
     inkscape:current-layer="svg2"
     inkscape:snap-page="true" />
  <path
     style="fill:#4CAF50"
     d="M 5.999999999999992,24 C 5.723457631312061,24 5.460262177031443,23.9441482243418 5.2216796875,23.84277343749998 4.50694116447535,23.53907778254423 4.009765625000011,22.82845763131203 4.009765625000011,21.99999999999998 L 4,7.999999999999992 C 4,6.895000000000012 4.895000000000012,6 5.999999999999992,6 L 19.99999999999998,6 C 21.10499999999998,6 22,6.895000000000012 22,7.999999999999992 L 22,21.99999999999998 C 22,23.10499999999998 21.10499999999998,24 19.99999999999998,24 l -0.99999999999999,0 -2,0 -8,0 -1.999999999999996,0 -1,0 z m 0,-5.00000000000002 13.999999999999985,0 0,-10.999999999999991 -13.999999999999985,0 0,10.999999999999991 z"
     id="path4164"
     inkscape:connector-curvature="0" />
  <path
     inkscape:connector-curvature="0"
     id="path4133"
     d="M 25.99999999999998,24 C 25.72345763131205,24 25.46026217703143,23.9441482243418 25.2216796875,23.84277343749998 c -0.71473852302465,-0.30369565495576 -1.21191406249999,-1.01431580618796 -1.21191406249999,-1.8427734375 l -0.009765625,-13.999999999999989 c -3e-14,-1.104999999999976 0.89499999999998,-1.999999999999986 1.99999999999997,-1.999999999999986 l 14.00000000000002,0 C 41.10499999999999,6 42,6.895000000000012 42,7.999999999999992 L 42,21.99999999999998 C 42,23.10499999999998 41.10499999999999,24 39.99999999999998,24 l -1,0 -2,0 -8.00000000000001,0 -2,0 -1.00000000000001,0 z m 0,-5.00000000000002 14,0 0,-10.999999999999991 -13.99999999999999,0 0,10.999999999999991 z"
     style="fill:#4CAF50" />
  <path
     inkscape:connector-curvature="0"
     id="path4135"
     d="M 7.333333333333293,44 C 6.872429385520093,44 6.433770295052394,43.9441482243418 6.036132812499979,43.8427734375 4.84490194079223,43.53907778254424 4.016276041666666,42.82845763131205 4.016276041666666,42 L 3.999999999999996,28 c 0,-1.10499999999999 1.491666666666688,-2 3.333333333333315,-2 L 30.66666666666663,26 C 32.50833333333329,26 34,26.89500000000001 34,28 l 0,13.99999999999998 c 0,1.10499999999999 -1.49166666666671,2 -3.33333333333337,2 l -1.66666666666666,0 -3.33333333333336,0 -13.33333333333336,0 -3.333333333333387,0 -1.666666666666657,0 z m 0,-5 23.333333333333317,0 0,-11 -23.333333333333317,0 0,11 z"
     style="fill:#4CAF50" />
</svg>

<svg xmlns="http://www.w3.org/2000/svg" fill="#4CAF50" viewBox="0 0 48 48"><path d="m6 24c-.277 0-.54-.056-.778-.157-.715-.304-1.212-1.014-1.212-1.843l-.01-14c0-1.105.895-2 2-2h14c1.105 0 2 .895 2 2v14c0 1.105-.895 2-2 2h-1-2-8-2-1m0-5h14v-11h-14v11"/><path d="m26 24c-.277 0-.54-.056-.778-.157-.715-.304-1.212-1.014-1.212-1.843l-.01-14c0-1.105.895-2 2-2h14c1.105 0 2 .895 2 2v14c0 1.105-.895 2-2 2h-1-2-8-2-1m0-5h14v-11h-14v11"/><path d="m7.333 44c-.461 0-.9-.056-1.297-.157-1.191-.304-2.02-1.014-2.02-1.843l-.016-14c0-1.105 1.492-2 3.333-2h23.333c1.842 0 3.333.895 3.333 2v14c0 1.105-1.492 2-3.333 2h-1.667-3.333-13.333-3.333-1.667m0-5h23.333v-11h-23.333v11"/></svg>
